public/art/nature/willow.svg

<svg xmlns="http://www.w3.org/2000/svg" width="64" height="64" shape-rendering="crispEdges" viewBox="0 -0.5 55 60"><path stroke="#0b262d" d="M15 11h3m5 0h3m2 0h4m-17 1h1m2 0h3m1 0h1m3 0h2m4 0h6m-23 1h1m5 0h2m8 0h2m5 0h1M9 14h6m24 0h3M9 15h1m32 0h1M9 16h1m33 0h1M8 17h3m32 0h5M6 18h2m39 0h1M5 19h1m42 0h1M4 20h1m44 0h1M3 21h1m46 0h1M3 22h1m46 0h1M4 23h1m44 0h3M3 24h1m47 0h2M2 25h1m49 0h1M2 26h1m49 0h1M2 27h1m47 0h1m1 0h1M3 28h1m46 0h2M3 29h1m46 0h1M2 30h1m48 0h2M1 31h1m50 0h1M1 32h1m50 0h1M1 33h5m42 0h2m2 0h1M4 34h1m44 0h3M4 35h1m44 0h1M5 36h1m43 0h1M4 37h1m44 0h2M3 38h1m40 0h1m5 0h1M3 39h1m2 0h3m35 0h4m2 0h1M4 40h2m3 0h1m3 0h1m26 0h1m3 0h1m3 0h3M8 41h1m3 0h2m26 0h2m2 0h1M8 42h1m2 0h1m2 0h1m25 0h1m1 0h1m1 0h1M9 43h2m4 0h1m22 0h2m3 0h2m-10 1h3"/><path stroke="#164a45" d="M16 12h2m5 0h3m2 0h4m-16 1h5m2 0h8m2 0h5m-23 1h9m6 0h9m-29 1h6m22 0h4m-32 1h4m26 0h3m-32 1h2m28 0h2M8 18h4m30 0h5M6 19h5m32 0h5M5 20h2m2 0h1m34 0h1m3 0h1M4 21h2m2 0h2m34 0h2m3 0h1M4 22h1m1 0h3m36 0h3m1 0h1M5 23h3m38 0h3M4 24h2m1 0h1m38 0h1m1 0h3M3 25h2m2 0h1m38 0h1m2 0h3M3 26h2m2 0h1m3 0h1m30 0h1m3 0h1m2 0h3M3 27h2m1 0h2m1 0h3m30 0h3m1 0h2m1 0h1m1 0h1M4 28h6m1 0h1m2 0h1m24 0h1m2 0h1m1 0h6M4 29h1m2 0h1m3 0h4m24 0h4m3 0h1m2 0h1M3 30h2m1 0h1m3 0h5m2 0h1m18 0h1m2 0h5m3 0h1m1 0h2M2 31h3m1 0h1m3 0h3m1 0h1m2 0h1m18 0h1m2 0h1m1 0h3m3 0h1m1 0h3M2 32h5m2 0h3m2 0h4m1 0h1m14 0h1m1 0h4m2 0h3m2 0h5M6 33h2m1 0h3m2 0h2m1 0h4m12 0h4m1 0h2m2 0h3m1 0h2m2 0h2M5 34h4m1 0h1m3 0h2m1 0h4m2 0h2m4 0h2m2 0h4m1 0h2m3 0h1m1 0h4M5 35h3m2 0h1m2 0h2m2 0h1m1 0h2m2 0h2m4 0h2m2 0h2m1 0h1m2 0h2m2 0h1m2 0h3M6 36h2m2 0h1m1 0h3m2 0h1m2 0h1m1 0h4m2 0h4m1 0h1m2 0h1m2 0h3m1 0h1m2 0h3M5 37h6m1 0h2m3 0h1m2 0h3m1 0h6m1 0h3m2 0h1m3 0h2m1 0h6M4 38h10m2 0h1m1 0h1m1 0h2m2 0h2m2 0h2m2 0h2m1 0h1m1 0h1m2 0h4m1 0h5M4 39h2m3 0h7m2 0h2m1 0h1m2 0h1m4 0h1m2 0h1m1 0h2m2 0h6m4 0h2m-40 1h3m1 0h2m1 0h2m2 0h1m1 0h3m2 0h3m1 0h1m2 0h2m1 0h2m1 0h3M9 41h3m2 0h5m1 0h6m2 0h6m1 0h5m2 0h2M9 42h2m4 0h5m1 0h12m1 0h6m3 0h1m-26 1h1m2 0h5m2 0h4m3 0h3m-16 1h3m4 0h3"/><path stroke="#22783f" d="M24 14h6m-14 1h2m2 0h14m2 0h2m-24 1h4m3 0h1m3 0h1m2 0h1m3 0h1m3 0h4m-27 1h2m2 0h3m1 0h2m2 0h1m2 0h1m2 0h2m1 0h3m2 0h2m-29 1h5m2 0h3m1 0h1m1 0h4m1 0h1m1 0h3m2 0h5m-31 1h1m2 0h1m1 0h2m2 0h2m2 0h1m4 0h1m2 0h2m2 0h2m1 0h1m2 0h1M7 20h2m1 0h1m2 0h2m2 0h2m16 0h2m2 0h2m2 0h1m1 0h3M6 21h1m3 0h7m20 0h7m3 0h2M5 22h1m3 0h4m2 0h2m2 0h1m14 0h1m2 0h2m2 0h4m3 0h1M8 23h1m2 0h1m2 0h2m2 0h2m14 0h2m2 0h2m2 0h1m2 0h1M6 24h1m3 0h2m4 0h4m14 0h4m4 0h2m3 0h1M5 25h1m2 0h6m2 0h1m1 0h1m2 0h2m8 0h2m2 0h1m1 0h1m2 0h6m2 0h1M5 26h2m1 0h3m2 0h3m2 0h4m2 0h1m4 0h1m2 0h4m2 0h3m2 0h3m1 0h2M5 27h1m2 0h1m4 0h2m3 0h1m2 0h1m1 0h3m2 0h3m1 0h1m2 0h1m3 0h2m4 0h1m2 0h1m-39 1h1m1 0h2m3 0h1m3 0h12m3 0h1m3 0h2m1 0h1M5 29h2m1 0h1m6 0h3m2 0h2m2 0h2m2 0h2m2 0h2m2 0h3m6 0h1m1 0h2M5 30h1m1 0h3m5 0h2m1 0h3m3 0h2m2 0h2m3 0h3m1 0h2m5 0h3m1 0h1M5 31h1m1 0h3m3 0h1m1 0h2m1 0h3m2 0h2m4 0h2m2 0h3m1 0h2m1 0h1m3 0h3m1 0h1M7 32h2m9 0h1m1 0h6m2 0h6m1 0h1m9 0h2M8 33h1m4 0h1m2 0h1m4 0h5m2 0h5m4 0h1m2 0h1m4 0h1M9 34h1m1 0h3m2 0h1m4 0h1m3 0h4m3 0h1m4 0h1m2 0h3m1 0h1M8 35h2m1 0h2m2 0h2m1 0h1m6 0h4m6 0h1m1 0h2m2 0h2m1 0h2M8 36h2m1 0h1m3 0h2m2 0h1m6 0h2m6 0h1m2 0h2m3 0h1m1 0h2m-35 1h1m2 0h3m1 0h2m3 0h1m6 0h1m3 0h2m1 0h3m2 0h1m-29 1h2m1 0h1m1 0h1m2 0h2m2 0h2m2 0h2m2 0h1m1 0h1m1 0h2m-24 1h2m2 0h1m1 0h2m1 0h4m1 0h2m1 0h1m2 0h2m-22 1h1m2 0h2m1 0h1m3 0h2m3 0h1m1 0h2m2 0h1m-19 1h1m6 0h2m6 0h1"/><path stroke="#679c30" d="M18 15h2m14 0h2m-18 1h3m1 0h3m1 0h2m1 0h3m1 0h3m-21 1h2m3 0h1m2 0h2m1 0h2m1 0h2m2 0h1m3 0h2m-22 1h2m3 0h1m1 0h1m4 0h1m1 0h1m3 0h2m-24 1h1m4 0h2m2 0h2m2 0h2m2 0h2m2 0h2m4 0h2m-30 1h1m6 0h4m1 0h1m4 0h1m1 0h4m3 0h1m2 0h2M7 21h1m9 0h9m2 0h7m1 0h1m9 0h1m-33 1h1m2 0h2m1 0h2m2 0h6m2 0h2m1 0h2m3 0h1M9 23h2m2 0h1m2 0h2m2 0h1m2 0h2m4 0h2m2 0h1m2 0h2m5 0h2M8 24h2m2 0h2m6 0h4m2 0h2m2 0h3m7 0h2m2 0h2M6 25h1m12 0h2m2 0h1m2 0h2m2 0h1m2 0h2m12 0h1m-36 1h1m10 0h1m1 0h4m1 0h1m10 0h1m-30 1h1m2 0h1m1 0h1m8 0h2m8 0h3m2 0h1m-27 1h2m3 0h1m12 0h1m3 0h2M9 29h2m8 0h1m14 0h2m7 0h2m-24 1h2m8 0h2m-12 1h2m2 0h2m1 0h1m2 0h2m-21 1h2m12 0h2m12 0h2m-30 1h1m13 0h2m13 0h1m-20 1h1m8 0h1m-11 1h2m8 0h2m-15 1h1m2 0h1m10 0h1m2 0h1"/><path stroke="#9abf44" d="M12 19h1m2 0h1m9 0h1m2 0h1m9 0h1m-28 1h1m3 0h2m6 0h1m1 0h4m1 0h1m6 0h1m-12 1h2m7 0h1m-23 1h1m8 0h2m6 0h2m7 0h1m-28 1h1m8 0h2m2 0h4m2 0h2m7 0h2m-28 1h2m8 0h2m2 0h2m3 0h1m4 0h2m-26 1h2m1 0h1m6 0h2m2 0h2m6 0h1m1 0h2m-24 1h2m4 0h1m8 0h1m4 0h2m-22 1h1m2 0h2m1 0h1m8 0h1m1 0h2m-17 1h2m14 0h2m-18 1h1m3 0h2m2 0h2m2 0h2m-9 1h1m2 0h2m2 0h1m-4 1h1"/><path stroke="#5f253e" d="M20 42h1m12 0h1m-17 1h1m1 0h2m5 0h2m4 0h3m-18 1h5m3 0h4m3 0h3m-18 1h2m2 0h13m-12 1h4m2 0h3m2 0h1m-10 1h2m7 0h1m-1 1h1m-1 1h2m-4 1h1m-1 1h1m-14 1h1m3 0h1m9 0h1m-15 1h1m1 0h2m6 0h1m4 0h1"/><path stroke="#140510" d="M16 43h1m-1 1h1m-1 1h1m17 0h1m-19 1h1m17 0h1m-19 1h1m17 0h1m-19 1h1m17 0h1m-19 1h1m18 0h1m-21 1h1m19 0h1m-23 1h2m21 0h1m-25 1h1m23 0h1m-26 1h1m25 0h1"/><path stroke="#7f3748" d="M19 45h2m-4 1h5m4 0h2m3 0h2m-14 1h1m2 0h2m2 0h6m-13 1h1m3 0h5m-4 1h1m1 0h1m4 0h1m-14 1h2m12 0h1m1 0h1m-17 1h1m3 0h2m8 0h1m2 0h1m-19 1h1m1 0h1m1 0h1m1 0h1m4 0h2m1 0h1m1 0h1m-17 1h1m1 0h1m2 0h1m4 0h1m4 0h1m1 0h1m1 0h1"/><path stroke="#944c4c" d="M17 47h2m1 0h2m10 0h1m-16 1h1m4 0h1m5 0h1m1 0h3m-14 1h1m3 0h1m1 0h1m1 0h1m2 0h1m1 0h1m-17 1h1m3 0h1m2 0h4m2 0h2m2 0h1m-19 1h1m3 0h1m1 0h1m2 0h2m2 0h3m3 0h1m-22 1h1m6 0h1m4 0h1m1 0h1m2 0h1m4 0h1m-24 1h2m1 0h2m8 0h2m2 0h1m1 0h1m3 0h1"/><path stroke="#b16c59" d="M18 48h1m1 0h2m7 0h1m-13 1h2m1 0h3m5 0h2m-13 1h1m3 0h2m4 0h2m-13 1h2m2 0h1m5 0h2m5 0h1m-20 1h3m7 0h1m1 0h1m7 0h1m-21 1h1m8 0h2m5 0h1"/><path stroke="rgba(19,6,17,0.3607843137254902)" d="M10 49h6m20 0h4M9 50h6m21 0h7M7 51h6m24 0h8M4 52h8m25 0h8M3 53h8m27 0h8M3 54h2m2 0h40M6 55h35m1 0h5M5 56h36m1 0h5M8 57h4m2 0h24m7 0h2M8 58h3m3 0h4m1 0h7m2 0h5m3 0h2M9 59h2m16 0h4"/></svg>

<svg xmlns="http://www.w3.org/2000/svg" width="64" height="64" viewBox="0 -0.5 55 60" shape-rendering="crispEdges">
<path stroke="#0b262d" d="M15 11h3M23 11h3M28 11h4M15 12h1M18 12h3M22 12h1M26 12h2M32 12h6M15 13h1M21 13h2M31 13h2M38 13h1M9 14h6M39 14h3M9 15h1M42 15h1M9 16h1M43 16h1M8 17h3M43 17h5M6 18h2M47 18h1M5 19h1M48 19h1M4 20h1M49 20h1M3 21h1M50 21h1M3 22h1M50 22h1M4 23h1M49 23h3M3 24h1M51 24h2M2 25h1M52 25h1M2 26h1M52 26h1M2 27h1M50 27h1M52 27h1M3 28h1M50 28h2M3 29h1M50 29h1M2 30h1M51 30h2M1 31h1M52 31h1M1 32h1M52 32h1M1 33h5M48 33h2M52 33h1M4 34h1M49 34h3M4 35h1M49 35h1M5 36h1M49 36h1M4 37h1M49 37h2M3 38h1M44 38h1M50 38h1M3 39h1M6 39h3M44 39h4M50 39h1M4 40h2M9 40h1M13 40h1M40 40h1M44 40h1M48 40h3M8 41h1M12 41h2M40 41h2M44 41h1M8 42h1M11 42h1M14 42h1M40 42h1M42 42h1M44 42h1M9 43h2M15 43h1M38 43h2M43 43h2M35 44h3" />
<path stroke="#164a45" d="M16 12h2M23 12h3M28 12h4M16 13h5M23 13h8M33 13h5M15 14h9M30 14h9M10 15h6M38 15h4M10 16h4M40 16h3M11 17h2M41 17h2M8 18h4M42 18h5M6 19h5M43 19h5M5 20h2M9 20h1M44 20h1M48 20h1M4 21h2M8 21h2M44 21h2M49 21h1M4 22h1M6 22h3M45 22h3M49 22h1M5 23h3M46 23h3M4 24h2M7 24h1M46 24h1M48 24h3M3 25h2M7 25h1M46 25h1M49 25h3M3 26h2M7 26h1M11 26h1M42 26h1M46 26h1M49 26h3M3 27h2M6 27h2M9 27h3M42 27h3M46 27h2M49 27h1M51 27h1M4 28h6M11 28h1M14 28h1M39 28h1M42 28h1M44 28h6M4 29h1M7 29h1M11 29h4M39 29h4M46 29h1M49 29h1M3 30h2M6 30h1M10 30h5M17 30h1M36 30h1M39 30h5M47 30h1M49 30h2M2 31h3M6 31h1M10 31h3M14 31h1M17 31h1M36 31h1M39 31h1M41 31h3M47 31h1M49 31h3M2 32h5M9 32h3M14 32h4M19 32h1M34 32h1M36 32h4M42 32h3M47 32h5M6 33h2M9 33h3M14 33h2M17 33h4M33 33h4M38 33h2M42 33h3M46 33h2M50 33h2M5 34h4M10 34h1M14 34h2M17 34h4M23 34h2M29 34h2M33 34h4M38 34h2M43 34h1M45 34h4M5 35h3M10 35h1M13 35h2M17 35h1M19 35h2M23 35h2M29 35h2M33 35h2M36 35h1M39 35h2M43 35h1M46 35h3M6 36h2M10 36h1M12 36h3M17 36h1M20 36h1M22 36h4M28 36h4M33 36h1M36 36h1M39 36h3M43 36h1M46 36h3M5 37h6M12 37h2M17 37h1M20 37h3M24 37h6M31 37h3M36 37h1M40 37h2M43 37h6M4 38h10M16 38h1M18 38h1M20 38h2M24 38h2M28 38h2M32 38h2M35 38h1M37 38h1M40 38h4M45 38h5M4 39h2M9 39h7M18 39h2M21 39h1M24 39h1M29 39h1M32 39h1M34 39h2M38 39h6M48 39h2M10 40h3M14 40h2M17 40h2M21 40h1M23 40h3M28 40h3M32 40h1M35 40h2M38 40h2M41 40h3M9 41h3M14 41h5M20 41h6M28 41h6M35 41h5M42 41h2M9 42h2M15 42h5M21 42h12M34 42h6M43 42h1M18 43h1M21 43h5M28 43h4M35 43h3M22 44h3M29 44h3" />
<path stroke="#22783f" d="M24 14h6M16 15h2M20 15h14M36 15h2M14 16h4M21 16h1M25 16h1M28 16h1M32 16h1M36 16h4M13 17h2M17 17h3M21 17h2M25 17h1M28 17h1M31 17h2M34 17h3M39 17h2M12 18h5M19 18h3M23 18h1M25 18h4M30 18h1M32 18h3M37 18h5M11 19h1M14 19h1M16 19h2M20 19h2M24 19h1M29 19h1M32 19h2M36 19h2M39 19h1M42 19h1M7 20h2M10 20h1M13 20h2M17 20h2M35 20h2M39 20h2M43 20h1M45 20h3M6 21h1M10 21h7M37 21h7M47 21h2M5 22h1M9 22h4M15 22h2M19 22h1M34 22h1M37 22h2M41 22h4M48 22h1M8 23h1M11 23h1M14 23h2M18 23h2M34 23h2M38 23h2M42 23h1M45 23h1M6 24h1M10 24h2M16 24h4M34 24h4M42 24h2M47 24h1M5 25h1M8 25h6M16 25h1M18 25h1M21 25h2M31 25h2M35 25h1M37 25h1M40 25h6M48 25h1M5 26h2M8 26h3M13 26h3M18 26h4M24 26h1M29 26h1M32 26h4M38 26h3M43 26h3M47 26h2M5 27h1M8 27h1M13 27h2M18 27h1M21 27h1M23 27h3M28 27h3M32 27h1M35 27h1M39 27h2M45 27h1M48 27h1M10 28h1M12 28h2M17 28h1M21 28h12M36 28h1M40 28h2M43 28h1M5 29h2M8 29h1M15 29h3M20 29h2M24 29h2M28 29h2M32 29h2M36 29h3M45 29h1M47 29h2M5 30h1M7 30h3M15 30h2M18 30h3M24 30h2M28 30h2M33 30h3M37 30h2M44 30h3M48 30h1M5 31h1M7 31h3M13 31h1M15 31h2M18 31h3M23 31h2M29 31h2M33 31h3M37 31h2M40 31h1M44 31h3M48 31h1M7 32h2M18 32h1M20 32h6M28 32h6M35 32h1M45 32h2M8 33h1M13 33h1M16 33h1M21 33h5M28 33h5M37 33h1M40 33h1M45 33h1M9 34h1M11 34h3M16 34h1M21 34h1M25 34h4M32 34h1M37 34h1M40 34h3M44 34h1M8 35h2M11 35h2M15 35h2M18 35h1M25 35h4M35 35h1M37 35h2M41 35h2M44 35h2M8 36h2M11 36h1M15 36h2M19 36h1M26 36h2M34 36h1M37 36h2M42 36h1M44 36h2M11 37h1M14 37h3M18 37h2M23 37h1M30 37h1M34 37h2M37 37h3M42 37h1M14 38h2M17 38h1M19 38h1M22 38h2M26 38h2M30 38h2M34 38h1M36 38h1M38 38h2M16 39h2M20 39h1M22 39h2M25 39h4M30 39h2M33 39h1M36 39h2M16 40h1M19 40h2M22 40h1M26 40h2M31 40h1M33 40h2M37 40h1M19 41h1M26 41h2M34 41h1" />
<path stroke="#679c30" d="M18 15h2M34 15h2M18 16h3M22 16h3M26 16h2M29 16h3M33 16h3M15 17h2M20 17h1M23 17h2M26 17h2M29 17h2M33 17h1M37 17h2M17 18h2M22 18h1M24 18h1M29 18h1M31 18h1M35 18h2M13 19h1M18 19h2M22 19h2M26 19h2M30 19h2M34 19h2M40 19h2M12 20h1M19 20h4M24 20h1M29 20h1M31 20h4M38 20h1M41 20h2M7 21h1M17 21h9M28 21h7M36 21h1M46 21h1M14 22h1M17 22h2M20 22h2M24 22h6M32 22h2M35 22h2M40 22h1M9 23h2M13 23h1M16 23h2M20 23h1M23 23h2M29 23h2M33 23h1M36 23h2M43 23h2M8 24h2M12 24h2M20 24h4M26 24h2M30 24h3M40 24h2M44 24h2M6 25h1M19 25h2M23 25h1M26 25h2M30 25h1M33 25h2M47 25h1M12 26h1M23 26h1M25 26h4M30 26h1M41 26h1M12 27h1M15 27h1M17 27h1M26 27h2M36 27h3M41 27h1M15 28h2M20 28h1M33 28h1M37 28h2M9 29h2M19 29h1M34 29h2M43 29h2M21 30h2M31 30h2M21 31h2M25 31h2M28 31h1M31 31h2M12 32h2M26 32h2M40 32h2M12 33h1M26 33h2M41 33h1M22 34h1M31 34h1M21 35h2M31 35h2M18 36h1M21 36h1M32 36h1M35 36h1" />
<path stroke="#9abf44" d="M12 19h1M15 19h1M25 19h1M28 19h1M38 19h1M11 20h1M15 20h2M23 20h1M25 20h4M30 20h1M37 20h1M26 21h2M35 21h1M13 22h1M22 22h2M30 22h2M39 22h1M12 23h1M21 23h2M25 23h4M31 23h2M40 23h2M14 24h2M24 24h2M28 24h2M33 24h1M38 24h2M14 25h2M17 25h1M24 25h2M28 25h2M36 25h1M38 25h2M16 26h2M22 26h1M31 26h1M36 26h2M16 27h1M19 27h2M22 27h1M31 27h1M33 27h2M18 28h2M34 28h2M18 29h1M22 29h2M26 29h2M30 29h2M23 30h1M26 30h2M30 30h1M27 31h1" />
<path stroke="#5f253e" d="M20 42h1M33 42h1M17 43h1M19 43h2M26 43h2M32 43h3M17 44h5M25 44h4M32 44h3M17 45h2M21 45h13M22 46h4M28 46h3M33 46h1M24 47h2M33 47h1M33 48h1M33 49h2M31 50h1M31 51h1M18 52h1M22 52h1M32 52h1M18 53h1M20 53h2M28 53h1M33 53h1" />
<path stroke="#140510" d="M16 43h1M16 44h1M16 45h1M34 45h1M16 46h1M34 46h1M16 47h1M34 47h1M16 48h1M34 48h1M16 49h1M35 49h1M15 50h1M35 50h1M13 51h2M36 51h1M12 52h1M36 52h1M11 53h1M37 53h1" />
<path stroke="#7f3748" d="M19 45h2M17 46h5M26 46h2M31 46h2M19 47h1M22 47h2M26 47h6M19 48h1M23 48h5M24 49h1M26 49h1M31 49h1M18 50h2M32 50h1M34 50h1M18 51h1M22 51h2M32 51h1M35 51h1M17 52h1M19 52h1M21 52h1M23 52h1M28 52h2M31 52h1M33 52h1M17 53h1M19 53h1M22 53h1M27 53h1M32 53h1M34 53h1M36 53h1" />
<path stroke="#944c4c" d="M17 47h2M20 47h2M32 47h1M17 48h1M22 48h1M28 48h1M30 48h3M19 49h1M23 49h1M25 49h1M27 49h1M30 49h1M32 49h1M16 50h1M20 50h1M23 50h4M29 50h2M33 50h1M15 51h1M19 51h1M21 51h1M24 51h2M28 51h3M34 51h1M13 52h1M20 52h1M25 52h1M27 52h1M30 52h1M35 52h1M12 53h2M15 53h2M25 53h2M29 53h1M31 53h1M35 53h1" />
<path stroke="#b16c59" d="M18 48h1M20 48h2M29 48h1M17 49h2M20 49h3M28 49h2M17 50h1M21 50h2M27 50h2M16 51h2M20 51h1M26 51h2M33 51h1M14 52h3M24 52h1M26 52h1M34 52h1M14 53h1M23 53h2M30 53h1" />
<path stroke="rgba(19,6,17,0.3607843137254902)" d="M10 49h6M36 49h4M9 50h6M36 50h7M7 51h6M37 51h8M4 52h8M37 52h8M3 53h8M38 53h8M3 54h2M7 54h40M6 55h35M42 55h5M5 56h36M42 56h5M8 57h4M14 57h24M45 57h2M8 58h3M14 58h4M19 58h7M28 58h5M36 58h2M9 59h2M27 59h4" />
</svg>
